packages/icons/src/svgs/uncategorized/Dropbox.svg

<svg xmlns="http://www.w3.org/2000/svg" aria-hidden="true" viewBox="0 0 32 32">
    <path d="M16.016 10.7728L10.008 14.7227L16.016 18.6725L10.008 22.6224L4 18.6396L10.008 14.6898L4 10.7728L10.008 6.823L16.016 10.7728ZM9.97603 23.8732L15.984 19.9233L21.992 23.8732L15.984 27.823L9.97603 23.8732ZM16.016 18.6396L22.024 14.6898L16.016 10.7728L21.992 6.823L28 10.7728L21.992 14.7227L28 18.6725L21.992 22.6224L16.016 18.6396Z" fill="currentColor"/>
</svg>

<svg xmlns="http://www.w3.org/2000/svg" aria-hidden="true" viewBox="0 0 32 32">
    <path fill="currentColor" d="M16.016 10.773l-6.008 3.95 6.008 3.95-6.008 3.95L4 18.64l6.008-3.95L4 10.773l6.008-3.95 6.008 3.95zm-6.04 13.1l6.008-3.95 6.008 3.95-6.008 3.95-6.008-3.95zm6.04-5.233l6.008-3.95-6.008-3.917 5.976-3.95L28 10.773l-6.008 3.95L28 18.673l-6.008 3.95-5.976-3.983z"/>
</svg>
